icons/linear-ele-tool-edit-setting-set-up.svg

<svg xmlns="http://www.w3.org/2000/svg" width="32px" height="32px" viewBox="0 0 32 32" version="1.1">
    <title>linear-ele-tool-edit-setting-set-up</title>
    <g id="linear-ele-tool-edit-setting-set-up" stroke-width="1" fill-rule="evenodd">
        <path d="M28,3 C28.5522847,3 29,3.44771525 29,4 L29,28 C29,28.5522847 28.5522847,29 28,29 L4,29 C3.44771525,29 3,28.5522847 3,28 L3,4 C3,3.44771525 3.44771525,3 4,3 L28,3 Z M27,5 L5,5 L5,27 L27,27 L27,5 Z M20,17 C22.209139,17 24,18.790861 24,21 C24,23.209139 22.209139,25 20,25 C18.1364348,25 16.570521,23.7256022 16.1262135,22.0007613 L9,22 C8.44771525,22 8,21.5522847 8,21 C8,20.4477153 8.44771525,20 9,20 L16.1259548,20.0002435 C16.5699129,18.2748927 18.1360729,17 20,17 Z M20,19 C18.8954305,19 18,19.8954305 18,21 C18,22.1045695 18.8954305,23 20,23 C21.1045695,23 22,22.1045695 22,21 C22,19.8954305 21.1045695,19 20,19 Z M12,7 C13.8639271,7 15.4300871,8.27489272 15.8740452,10.0002435 L23,10 C23.5522847,10 24,10.4477153 24,11 C24,11.5522847 23.5522847,12 23,12 L15.8737865,12.0007613 C15.429479,13.7256022 13.8635652,15 12,15 C9.790861,15 8,13.209139 8,11 C8,8.790861 9.790861,7 12,7 Z M12,9 C10.8954305,9 10,9.8954305 10,11 C10,12.1045695 10.8954305,13 12,13 C13.1045695,13 14,12.1045695 14,11 C14,9.8954305 13.1045695,9 12,9 Z" id="&#24418;&#29366;" fill-rule="nonzero" />
    </g>
</svg>

<svg xmlns="http://www.w3.org/2000/svg" viewBox="0 0 32 32"><path fill="currentColor" d="M28 3a1 1 0 0 1 1 1v24a1 1 0 0 1-1 1H4a1 1 0 0 1-1-1V4a1 1 0 0 1 1-1zm-1 2H5v22h22zm-7 12a4 4 0 1 1-3.874 5H9a1 1 0 0 1 0-2h7.126c.444-1.725 2.01-3 3.874-3m0 2a2 2 0 1 0 0 4 2 2 0 0 0 0-4M12 7a4.002 4.002 0 0 1 3.874 3H23a1 1 0 0 1 0 2h-7.126A4.002 4.002 0 0 1 8 11a4 4 0 0 1 4-4m0 2a2 2 0 1 0 0 4 2 2 0 0 0 0-4"/></svg>
